src/com/lilithsthrone/res/weapons/rangedFeather2.svg

<?xml version="1.0" encoding="UTF-8" standalone="no"?>
<!-- Created with Inkscape (http://www.inkscape.org/) -->

<svg
   xmlns:dc="http://purl.org/dc/elements/1.1/"
   xmlns:cc="http://creativecommons.org/ns#"
   xmlns:rdf="http://www.w3.org/1999/02/22-rdf-syntax-ns#"
   xmlns:svg="http://www.w3.org/2000/svg"
   xmlns="http://www.w3.org/2000/svg"
   xmlns:sodipodi="http://sodipodi.sourceforge.net/DTD/sodipodi-0.dtd"
   xmlns:inkscape="http://www.inkscape.org/namespaces/inkscape"
   viewBox="0 0 256 256"
   id="svg2"
   version="1.1"
   inkscape:version="0.91 r13725"
   sodipodi:docname="rangedFeather2Icon.svg">
  <defs
     id="defs4">
    <inkscape:path-effect
       cusp_linecap_type="round"
       end_linecap_type="zerowidth"
       miter_limit="4"
       linejoin_type="round"
       start_linecap_type="zerowidth"
       interpolator_beta="0.2"
       interpolator_type="Linear"
       sort_points="true"
       offset_points="0.55068825,3.1286392"
       is_visible="true"
       id="path-effect4231"
       effect="powerstroke" />
    <inkscape:path-effect
       cusp_linecap_type="round"
       end_linecap_type="zerowidth"
       miter_limit="4"
       linejoin_type="round"
       start_linecap_type="zerowidth"
       interpolator_beta="0.2"
       interpolator_type="Linear"
       sort_points="true"
       offset_points="0.55068825,3.1286392"
       is_visible="true"
       id="path-effect4227"
       effect="powerstroke" />
    <inkscape:path-effect
       cusp_linecap_type="round"
       end_linecap_type="zerowidth"
       miter_limit="4"
       linejoin_type="round"
       start_linecap_type="zerowidth"
       interpolator_beta="0.2"
       interpolator_type="Linear"
       sort_points="true"
       offset_points="0.55068825,1.9422124"
       is_visible="true"
       id="path-effect4219"
       effect="powerstroke" />
    <inkscape:path-effect
       cusp_linecap_type="round"
       end_linecap_type="zerowidth"
       miter_limit="4"
       linejoin_type="round"
       start_linecap_type="zerowidth"
       interpolator_beta="0.2"
       interpolator_type="Linear"
       sort_points="true"
       offset_points="0.55068825,3.1286392"
       is_visible="true"
       id="path-effect4215"
       effect="powerstroke" />
    <inkscape:path-effect
       cusp_linecap_type="round"
       end_linecap_type="zerowidth"
       miter_limit="4"
       linejoin_type="round"
       start_linecap_type="zerowidth"
       interpolator_beta="0.2"
       interpolator_type="Linear"
       sort_points="true"
       offset_points="0.55068825,1.9422124"
       is_visible="true"
       id="path-effect4211"
       effect="powerstroke" />
    <inkscape:path-effect
       cusp_linecap_type="round"
       end_linecap_type="zerowidth"
       miter_limit="4"
       linejoin_type="round"
       start_linecap_type="zerowidth"
       interpolator_beta="0.2"
       interpolator_type="Linear"
       sort_points="true"
       offset_points="0.55068825,3.1286392"
       is_visible="true"
       id="path-effect4207"
       effect="powerstroke" />
    <inkscape:path-effect
       cusp_linecap_type="round"
       end_linecap_type="zerowidth"
       miter_limit="4"
       linejoin_type="round"
       start_linecap_type="zerowidth"
       interpolator_beta="0.2"
       interpolator_type="Linear"
       sort_points="true"
       offset_points="0.55068825,1.338671"
       is_visible="true"
       id="path-effect4200-5-4"
       effect="powerstroke" />
    <inkscape:path-effect
       effect="powerstroke"
       id="path-effect4687"
       is_visible="true"
       offset_points="0.55068825,1.9422124"
       sort_points="true"
       interpolator_type="Linear"
       interpolator_beta="0.2"
       start_linecap_type="zerowidth"
       linejoin_type="round"
       miter_limit="4"
       end_linecap_type="zerowidth"
       cusp_linecap_type="round" />
    <inkscape:path-effect
       effect="powerstroke"
       id="path-effect4683"
       is_visible="true"
       offset_points="0.55068825,3.1286392"
       sort_points="true"
       interpolator_type="Linear"
       interpolator_beta="0.2"
       start_linecap_type="zerowidth"
       linejoin_type="round"
       miter_limit="4"
       end_linecap_type="zerowidth"
       cusp_linecap_type="round" />
    <inkscape:path-effect
       cusp_linecap_type="round"
       end_linecap_type="zerowidth"
       miter_limit="4"
       linejoin_type="round"
       start_linecap_type="zerowidth"
       interpolator_beta="0.2"
       interpolator_type="Linear"
       sort_points="true"
       offset_points="0.55068825,1.4540937"
       is_visible="true"
       id="path-effect4434-5-1"
       effect="powerstroke" />
    <inkscape:path-effect
       effect="powerstroke"
       id="path-effect4651"
       is_visible="true"
       offset_points="0.55068825,1.9422124"
       sort_points="true"
       interpolator_type="Linear"
       interpolator_beta="0.2"
       start_linecap_type="zerowidth"
       linejoin_type="round"
       miter_limit="4"
       end_linecap_type="zerowidth"
       cusp_linecap_type="round" />
    <inkscape:path-effect
       effect="powerstroke"
       id="path-effect4647"
       is_visible="true"
       offset_points="0.55068825,3.1286392"
       sort_points="true"
       interpolator_type="Linear"
       interpolator_beta="0.2"
       start_linecap_type="zerowidth"
       linejoin_type="round"
       miter_limit="4"
       end_linecap_type="zerowidth"
       cusp_linecap_type="round" />
  </defs>
  <sodipodi:namedview
     id="base"
     pagecolor="#ffffff"
     bordercolor="#666666"
     borderopacity="1.0"
     inkscape:pageopacity="0.0"
     inkscape:pageshadow="2"
     inkscape:zoom="1.4"
     inkscape:cx="-93.777792"
     inkscape:cy="155.18338"
     inkscape:document-units="px"
     inkscape:current-layer="layer2"
     showgrid="false"
     units="px"
     inkscape:window-width="2560"
     inkscape:window-height="1388"
     inkscape:window-x="-8"
     inkscape:window-y="-8"
     inkscape:window-maximized="1"
     showguides="false" />
  <metadata
     id="metadata7">
    <rdf:RDF>
      <cc:Work
         rdf:about="">
        <dc:format>image/svg+xml</dc:format>
        <dc:type
           rdf:resource="http://purl.org/dc/dcmitype/StillImage" />
        <dc:title />
      </cc:Work>
    </rdf:RDF>
  </metadata>
  <g
     inkscape:groupmode="layer"
     id="layer2"
     inkscape:label="Layer 2"
     style="display:inline">
    <path
       style="fill:#ffaaaa;fill-rule:evenodd;stroke:#000000;stroke-width:1px;stroke-linecap:butt;stroke-linejoin:miter;stroke-opacity:1"
       d="m 94.772125,129.39526 -0.01571,22.63838 2.170488,-25.95229 C 107.18074,106.73632 149.37844,77.024303 162.11149,68.011218 l -5.61216,19.075565 9.40645,-20.624647 c 10.80686,-7.087786 42.97374,-16.468135 63.96513,-44.262922 1.60022,31.918409 -36.06852,74.668418 -42.78418,91.347976 l -24.86732,6.91109 24.23307,-3.94985 c -6.94792,22.34052 -19.67939,40.106 -37.92386,56.33692 l -27.09916,8.36983 24.62957,-5.33611 c -20.18063,17.18451 -39.00652,28.18484 -62.270105,26.65163 0,0 -0.853052,-0.87236 -1.630569,-1.46306 -5.153143,-35.12664 3.022797,-60.30605 12.613769,-71.67238 z"
       id="path5354"
       inkscape:connector-curvature="0"
       sodipodi:nodetypes="cccccccccccccccc" />
    <path
       style="fill:#000000;fill-opacity:0.17757012;fill-rule:evenodd;stroke:none;stroke-width:1px;stroke-linecap:butt;stroke-linejoin:miter;stroke-opacity:1"
       d="M 84.107143,202.25 134.10714,125.10714 C 166.20535,91.256604 215.45194,58.660826 229.64286,23.5 c 0.92355,33.465235 -28.15861,59.656358 -42.32143,89.46429 l -24.82143,7.5 23.75,-3.75 c -5.80531,20.49059 -17.52872,37.53861 -37.5,55.89285 L 122.23214,181 145.53571,176.35714 C 124.68478,193.91538 105.83333,203.17262 84.107143,202.25 Z"
       id="path4137"
       inkscape:connector-curvature="0"
       sodipodi:nodetypes="cccccccccc" />
    <path
       style="fill:#4d4d4d;fill-rule:evenodd;stroke:#000000;stroke-width:1px;stroke-linecap:butt;stroke-linejoin:miter;stroke-opacity:1"
       d="M 203.8544,60.562225 C 183.02655,80.230876 154.68354,100.00425 134.23774,123.15403 105.20371,156.02786 98.278673,188.85841 49.373973,242.42481 99.022425,192.09753 109.07831,157.61541 136.68401,124.31197 155.78218,101.27201 186.75325,80.026463 203.8544,60.562225 Z"
       id="path5356"
       inkscape:connector-curvature="0"
       sodipodi:nodetypes="cscsc" />
    <path
       sodipodi:nodetypes="cc"
       inkscape:connector-curvature="0"
       inkscape:original-d="M 233.29672,50.949679 C 231.11227,135.11996 198.46597,216.92249 121.40507,254.56439"
       inkscape:path-effect="#path-effect4207"
       id="path4205"
       d="m 233.29672,50.949679 c -2.24928,46.402948 -13.742,91.441001 -36.36234,128.348581 -16.75752,30.9647 -41.37779,57.42402 -75.52931,75.26613 35.10138,-15.98467 61.78859,-41.17987 80.94934,-72.12086 21.40046,-38.96332 30.78216,-85.194899 30.94231,-131.493851 z"
       style="display:inline;fill:#ff8080;fill-rule:evenodd;stroke:none;stroke-width:1px;stroke-linecap:butt;stroke-linejoin:miter;stroke-opacity:1" />
    <path
       sodipodi:nodetypes="cc"
       inkscape:connector-curvature="0"
       inkscape:original-d="m 240.49849,105.44978 c -6.26719,57.99588 -29.05012,112.97618 -73.46035,135.4624"
       inkscape:path-effect="#path-effect4211"
       id="path4209"
       d="m 240.49849,105.44978 c -4.10044,31.911 -13.18567,62.5842 -27.92445,87.18905 -10.95528,20.57278 -25.90596,37.60963 -45.5359,48.27335 20.28044,-9.54171 36.50094,-25.83382 48.91879,-46.35838 13.90664,-25.76403 21.73794,-57.14231 24.54156,-89.10402 z"
       style="display:inline;fill:#ff8080;fill-rule:evenodd;stroke:none;stroke-width:1px;stroke-linecap:butt;stroke-linejoin:miter;stroke-opacity:1" />
    <path
       sodipodi:nodetypes="cc"
       inkscape:connector-curvature="0"
       inkscape:original-d="m 29.41827,219.93559 c 1.404374,-84.18692 33.291221,-166.288455 110,-204.642844"
       inkscape:path-effect="#path-effect4215"
       id="path4213"
       d="M 29.41827,219.93559 C 31.237451,173.51379 42.312319,128.37117 64.589674,91.255557 81.059533,60.136896 105.43356,33.450562 139.41827,15.292746 104.46652,31.602006 78.013937,57.043426 59.140729,88.160649 38.102253,127.3206 29.14937,173.63714 29.41827,219.93559 Z"
       style="display:inline;fill:#ff8080;fill-rule:evenodd;stroke:none;stroke-width:1px;stroke-linecap:butt;stroke-linejoin:miter;stroke-opacity:1" />
    <path
       sodipodi:nodetypes="cc"
       inkscape:connector-curvature="0"
       inkscape:original-d="M 21.711776,165.50457 C 27.441261,107.45309 49.71372,52.264032 93.913672,29.36724"
       inkscape:path-effect="#path-effect4219"
       id="path4217"
       d="M 21.711776,165.50457 C 25.516326,133.55693 34.316924,102.80086 48.827064,78.060486 59.591225,57.387066 74.383392,40.212403 93.913672,29.36724 73.722521,39.096475 57.653694,55.538195 45.426572,76.176943 31.759285,102.06874 24.219093,133.51824 21.711776,165.50457 Z"
       style="display:inline;fill:#ff8080;fill-rule:evenodd;stroke:none;stroke-width:1px;stroke-linecap:butt;stroke-linejoin:miter;stroke-opacity:1" />
  </g>
</svg>

<svg xmlns="http://www.w3.org/2000/svg" viewBox="0 0 256 256">
    <g fill-rule="evenodd">
        <path fill="#faa" stroke="#000" d="M94.772 129.395l-.016 22.639 2.17-25.953c10.255-19.345 52.452-49.057 65.185-58.07L156.5 87.087l9.407-20.625c10.807-7.088 42.974-16.468 63.965-44.263 1.6 31.919-36.069 74.669-42.784 91.348l-24.868 6.911 24.233-3.95c-6.947 22.341-19.679 40.106-37.923 56.337l-27.1 8.37 24.63-5.336c-20.18 17.185-39.006 28.185-62.27 26.652 0 0-.853-.873-1.63-1.463-5.154-35.127 3.022-60.306 12.613-71.673z"/>
        <path fill-opacity=".178" d="M84.107 202.25l50-77.143c32.098-33.85 81.345-66.446 95.536-101.607.923 33.465-28.159 59.656-42.322 89.464l-24.821 7.5 23.75-3.75c-5.805 20.49-17.529 37.539-37.5 55.893L122.232 181l23.304-4.643c-20.851 17.558-39.703 26.816-61.429 25.893z"/>
        <path fill="#4d4d4d" stroke="#000" d="M203.854 60.562c-20.827 19.669-49.17 39.442-69.616 62.592-29.034 32.874-35.96 65.704-84.864 119.27 49.648-50.326 59.704-84.809 87.31-118.112 19.098-23.04 50.07-44.286 67.17-63.75z"/>
        <path fill="#ff8080" d="M233.297 50.95c-2.25 46.403-13.742 91.44-36.363 128.348-16.757 30.965-41.377 57.424-75.529 75.266 35.101-15.984 61.789-41.18 80.95-72.12 21.4-38.964 30.782-85.195 30.942-131.494z"/>
        <path fill="#ff8080" d="M240.498 105.45c-4.1 31.91-13.185 62.584-27.924 87.189-10.955 20.573-25.906 37.61-45.536 48.273 20.28-9.542 36.501-25.834 48.919-46.358 13.907-25.764 21.738-57.143 24.541-89.104zM29.418 219.936c1.82-46.422 12.894-91.565 35.172-128.68 16.47-31.12 40.844-57.805 74.828-75.963-34.951 16.309-61.404 41.75-80.277 72.868-21.039 39.16-29.992 85.476-29.723 131.775z"/>
        <path fill="#ff8080" d="M21.712 165.505c3.804-31.948 12.605-62.704 27.115-87.445 10.764-20.673 25.556-37.848 45.087-48.693-20.191 9.73-36.26 26.171-48.487 46.81-13.668 25.892-21.208 57.341-23.715 89.328z"/>
    </g>
</svg>
